img/star1.svg

<svg width="426" height="426" viewBox="0 0 426 426" fill="none" xmlns="http://www.w3.org/2000/svg">
<path opacity="0.6" d="M192.917 14.7721C200.149 -3.38543 225.851 -3.38543 233.083 14.7721C239.146 29.9938 258.878 33.9188 270.304 22.176C283.935 8.16822 307.68 18.0036 307.413 37.5467C307.189 53.9298 323.917 65.1073 338.968 58.631C356.921 50.9056 375.094 69.0791 367.369 87.0325C360.893 102.083 372.07 118.811 388.453 118.587C407.996 118.32 417.832 142.065 403.824 155.696C392.081 167.122 396.006 186.854 411.228 192.917C429.385 200.149 429.385 225.851 411.228 233.083C396.006 239.146 392.081 258.878 403.824 270.304C417.832 283.935 407.996 307.68 388.453 307.413C372.07 307.189 360.893 323.917 367.369 338.968C375.094 356.921 356.921 375.094 338.968 367.369C323.917 360.893 307.189 372.07 307.413 388.453C307.68 407.996 283.935 417.832 270.304 403.824C258.878 392.081 239.146 396.006 233.083 411.228C225.851 429.385 200.149 429.385 192.917 411.228C186.854 396.006 167.122 392.081 155.696 403.824C142.065 417.832 118.32 407.996 118.587 388.453C118.811 372.07 102.083 360.893 87.0325 367.369C69.0792 375.094 50.9056 356.921 58.631 338.968C65.1073 323.917 53.9298 307.189 37.5467 307.413C18.0036 307.68 8.16822 283.935 22.176 270.304C33.9188 258.878 29.9938 239.146 14.7721 233.083C-3.38543 225.851 -3.38542 200.149 14.7722 192.917C29.9938 186.854 33.9188 167.122 22.176 155.696C8.16822 142.065 18.0037 118.32 37.5467 118.587C53.9298 118.811 65.1073 102.083 58.631 87.0325C50.9056 69.0791 69.0791 50.9056 87.0325 58.631C102.083 65.1073 118.811 53.9298 118.587 37.5467C118.32 18.0037 142.065 8.16822 155.696 22.176C167.122 33.9188 186.854 29.9938 192.917 14.7721Z" stroke="#2391FF" stroke-opacity="0.4"/>
</svg>

<svg width="426" height="426" fill="none" xmlns="http://www.w3.org/2000/svg"><path opacity=".6" d="M192.917 14.772c7.232-18.157 32.934-18.157 40.166 0 6.063 15.222 25.795 19.147 37.221 7.404 13.631-14.008 37.376-4.172 37.109 15.37-.224 16.384 16.504 27.561 31.555 21.085 17.953-7.725 36.126 10.448 28.401 28.401-6.476 15.051 4.701 31.779 21.084 31.555 19.543-.267 29.379 23.478 15.371 37.109-11.743 11.426-7.818 31.158 7.404 37.221 18.157 7.232 18.157 32.934 0 40.166-15.222 6.063-19.147 25.795-7.404 37.221 14.008 13.631 4.172 37.376-15.371 37.109-16.383-.224-27.56 16.504-21.084 31.555 7.725 17.953-10.448 36.126-28.401 28.401-15.051-6.476-31.779 4.701-31.555 21.084.267 19.543-23.478 29.379-37.109 15.371-11.426-11.743-31.158-7.818-37.221 7.404-7.232 18.157-32.934 18.157-40.166 0-6.063-15.222-25.795-19.147-37.221-7.404-13.631 14.008-37.376 4.172-37.109-15.371.224-16.383-16.504-27.56-31.555-21.084-17.953 7.725-36.126-10.448-28.401-28.401 6.476-15.051-4.701-31.779-21.084-31.555-19.543.267-29.379-23.478-15.371-37.109 11.743-11.426 7.818-31.158-7.404-37.221-18.157-7.232-18.157-32.934 0-40.166 15.222-6.063 19.147-25.795 7.404-37.221-14.008-13.631-4.172-37.376 15.37-37.109 16.384.224 27.561-16.504 21.085-31.555-7.725-17.953 10.448-36.126 28.401-28.401 15.051 6.476 31.779-4.701 31.555-21.084-.267-19.543 23.478-29.379 37.109-15.371 11.426 11.743 31.158 7.818 37.221-7.404z" stroke="#2391FF" stroke-opacity=".4"/></svg>
